X:1

T:Bashful Beau, The

M:4/4

L:1/8

S:Rice-Walsh manuscript

Z:Paul Kinder

R:Reel

K:G

defg fcdB|AD (3FED FAdc|BEEF GABc|dBAc BE E2|

Bdef d2 dB|AD (3FED FAdc|BEEF GABc|dBAc BE E2||

e2 ef g2 fe|defg afdf|e2 ef gfge|dBAc BE E2|

e2 ef g2 fe|defg afdf|gabg fagf|(3efg fa gfge||

                       

BASHFUL LOVER, THE. Irish, Slow Air (3/4 time). G Major. Standard tuning. AB. O'Neill (Music of Ireland: 1850 Melodies), 1903/1979; No. 550, pg. 96.

